!!!COM:	Bach, Johann Sebastian
!!!CDT:	1685/02/21/-1750/07/28/
!!!OTL@@DE:	Warum sollt ich mich denn gr&auml;men
!!!SCT:	BWV 422
!!!PC#:	357
!!!AGN:	chorale
**kern	**kern	**kern	**kern
*ICvox	*ICvox	*ICvox	*ICvox
*Ibass	*Itenor	*Ialto	*Isoprn
*I"Bass	*I"Tenor	*I"Alto	*I"Soprano
*	*oclefC4	*oclefC3	*oclefC1
*clefF4	*clefGv2	*clefG2	*clefG2
*k[]	*k[]	*k[]	*k[]
*G:mix	*G:mix	*G:mix	*G:mix
*M4/4	*M4/4	*M4/4	*M4/4
*met(c)	*met(c)	*met(c)	*met(c)
*MM100	*MM100	*MM100	*MM100
=1-	=1-	=1-	=1-
8CL	4c	8eL	4g
8DJ	.	8fJ	.
8EL	4c	8gL	4g
8CJ	.	[8eJ	.
4.F	4c	8eL]	4a
.	.	[8dJ	.
.	8BL	8dL]	4g
8E	8cJ	8gJ	.
=2	=2	=2	=2
4D	4f	4f	8aL
.	.	.	8bJ
8EL	4e	4g	4cc
8FJ	.	.	.
2G	8dL	2g	4cc
.	8eJ	.	.
.	8fL	.	4b
.	16gL	.	.
.	16fJJ	.	.
=3	=3	=3	=3
2C;	2e;	2g;	2cc;
4G	4B	8gL	4dd
.	.	8fJ	.
4G#	4B	4e	4ee
=4	=4	=4	=4
2A;	2A;	2e;	2cc;
4E	4GnX	4e	8bL
.	.	.	8ccJ
8BBL	4G	4d	4dd
8CJ	.	.	.
=5	=5	=5	=5
2D;	2F#;	2d;	2a;
4BB	4F#	4d	4dd
[4E	[4G	[4e	4dd
=6	=6	=6	=6
8EL]	8GL]	8eL]	4cc
8F#J	8AJ	[8dJ	.
8GL	8BL	8dL]	4b
8BBJ	8dJ	8gJ	.
8CL	4e	4g	4a
8AAJ	.	.	.
4D	16ALL	4f#	8.aL
.	16BJ	.	.
.	8cJ	.	.
.	.	.	16gJk
=7	=7	=7	=7
2GG;	2B;	2d;	2g;
8EL	4G	8gL	4cc
8DJ	.	8f#J	.
8EL	4e	8gL	4cc
8F#J	.	8aJ	.
=8	=8	=8	=8
8GL	4d	4g	4b
8FnXJ	.	.	.
8EL	4c	2g	4cc
8CJ	.	.	.
8FL	4c	.	4a
8EJ	.	.	.
8FL	4A	4f	4dd
8DJ	.	.	.
=9	=9	=9	=9
8GL	4B-	2e	4dd
8EJ	.	.	.
8AL	4A	.	4cc#
8AAJ	.	.	.
2D;	2A;	2f#;	2dd;
=10	=10	=10	=10
4G	4BnX	4g	4dd
4C	8B-L	4g	4ee
.	16cL	.	.
.	16B-JJ	.	.
2F;	2A;	2fnX;	2ccnX;
=11	=11	=11	=11
8FL	4G	8dL	8bnXL
8EJ	.	8eJ	8ccJ
8BBL	4G	8dL	4dd
8CJ	.	8eJ	.
2D;	2d;	2f#;	2a;
=12	=12	=12	=12
4BB	8dL	4f#	4dd
.	8cJ	.	.
4E	4B	8gL	4dd
.	.	8f#J	.
4AA	4c	8eL	4cc
.	.	8f#J	.
8BBL	4d	4g	8bL
8CJ	.	.	8aJ
=13	=13	=13	=13
2D	4d	4g	4a
.	16ALL	4f#	8.aL
.	16BJ	.	.
.	8cJ	.	.
.	.	.	16gJk
2GG;	2B;	2d;	2g;
==	==	==	==
*-	*-	*-	*-
!!!YOR1: 371 vierstimmige Choralges&auml;nge von Johann Sebastian Bach, 
!!!YOR2: 4th ed. by Alfred D&ouml;rffel (Leipzig: Breitkopf und H&auml;rtel, 
!!!YOR2: c.1875). 178 pp. Plate "V.A.10".  reprint: J.S. Bach, 371 Four-Part 
!!!YOR4: Chorales (New York: Associated Music Publishers, Inc., c.1940).
!!!SMS: B&H, 4th ed, Alfred D&ouml;rffel, c.1875, plate V.A.10
!!!EED:  Craig Stuart Sapp
!!!EEV:  2009/05/22
